X: 13917
T: Foxhunter, The
R: slip jig
M: 9/8
K: Dmajor
|:B3 B^AB ~c2 A|B2 B BGB A2 G|BcB B^AB c2 e|dBG GAB A2 G:|
|:e3 edc Bcd|e2 A A2 B c2 e|dd/e/f gfe def|g2 G G2 B A2 G:|
|:F3 F^EF G2 E|F2 F FD/E/F E2 D|FGF FED GG/A/B|AFD D2 F E2 D:|
|:BB/=c/B BAG F2 A|B2 E E2 F G2 B|ABc dd/c/B ABc|d2 D D2 F E2 D:|

